X: 1
R: reel
P: The Black Bear
C: from Ceol Na Fidhle 3
C: arr. Andy Imbrie
M: 4/4
L: 1/8
K: D
|: A|"D"d2 "D"d2 fdaf|"D"d2 "D"d2 fdaf|"E"e2 B2 B2 ed|"A"cdBc ABcA|"D"d2 "D"d2 fdaf|"D"d2 "D"d2 fdaf|"Em"e2 e2 "A7"egfe |"D"d2 f2 d2 :|
e2|"D"AAAB "Bm"d2 de|"Em"g2 fe "D/A"fafd|"D"AAAB "Bm"d2 de|"Em"g2 fe "D"fafd|"A"aAAA cAAA|"Bm"dBBB "A/C#"eccc|"D"dfdf "A/E"egfg|"A"aA a2 "A7"agfe||
"D"d2 "D"d2 fdaf|"D"d2 "D"d2 fdaf|"E"e2 B2 B2 ed|"A"cdBc ABcA|"D"d2 "D"d2 fdaf|"D"d2 "D"d2 fdaf|"Em"e2 e2 "A7"egfe |"D"d2 f2 d2 |]

